X:21196
T:TRIP TO GALWAY, The 
B:DMI.0345
Z:Nordberg/Black
R:jig
%Q:1/4=160
M:6/8
L:1/8
K:Em %source key = Dm
c|BGE EGB|ded BAG|FAE DED|FGA Bdc|
BGE EGA|Bc^d e2f|gfe fed|Bee e2:|
f|gfe bge|ega bge|fed afd|dfg agf|
gfe fed|ege dBA|GAB dcd|Bee e2:|


%%%

